X: 54
T:Boys of Tanderagee
R:Jig
M:6/8
L:1/8
Q:3/8=120
K:C
G|:AGA DED| AGA c2A| GAG CDC| CEG cBc|
AGA DED| AGA cde| dcA GEG| ADD D2G:|
|: ABc d2d| edc dAB| cdc cGE| CEG cBc|
ABc d2d| edc d2c| dcA GEC| DED D2G:|
